src/symbols/alphanum/1F201.svg

<svg id="emoji" viewBox="0 0 72 72" xmlns="http://www.w3.org/2000/svg">
  <g id="grid">
    <path fill="#b3b3b3" d="M68,4V68H4V4H68m4-4H0V72H72V0Z"/>
    <path fill="none" stroke="#00a5ff" stroke-miterlimit="10" stroke-width="0.1" d="M12.923,10.9583H59.0769A1.9231,1.9231,0,0,1,61,12.8814V59.0352a1.9231,1.9231,0,0,1-1.9231,1.9231H12.9231A1.9231,1.9231,0,0,1,11,59.0352V12.8813A1.923,1.923,0,0,1,12.923,10.9583Z"/>
    <rect x="16" y="4" rx="2.2537" width="40" height="64" fill="none" stroke="#00a5ff" stroke-miterlimit="10" stroke-width="0.1"/>
    <rect x="16" y="4" rx="2.2537" width="40" height="64" transform="translate(72) rotate(90)" fill="none" stroke="#00a5ff" stroke-miterlimit="10" stroke-width="0.1"/>
    <circle cx="36" cy="36" r="29" fill="none" stroke="#00a5ff" stroke-miterlimit="10" stroke-width="0.1"/>
  </g>
  <g id="color">
    <rect x="11.8049" y="11.6024" rx="1.6991" width="48.9841" height="48.9841" fill="#d0cfce"/>
  </g>
  <g id="line">
    <g>
      <path fill="none" stroke="#000" stroke-linecap="round" stroke-miterlimit="5" stroke-width="2" d="M17.3676,26.2186h16.53a.43.43,0,0,1,.43.43V48.9454"/>
      <line x1="34.3267" x2="17.3676" y1="46.2827" y2="46.2827" fill="none" stroke="#000" stroke-linecap="round" stroke-miterlimit="5" stroke-width="2"/>
      <path fill="none" stroke="#000" stroke-linecap="round" stroke-miterlimit="5" stroke-width="2" d="M37.4746,26.2186h16.53a.43.43,0,0,1,.4295.43V48.9454"/>
      <line x1="54.4338" x2="37.4746" y1="46.2827" y2="46.2827" fill="none" stroke="#000" stroke-linecap="round" stroke-miterlimit="5" stroke-width="2"/>
      <rect x="11.8049" y="11.6024" rx="1.6991" width="48.9841" height="48.9841" fill="none" stroke="#000" stroke-miterlimit="10" stroke-width="2"/>
    </g>
  </g>
</svg>

<svg viewBox="0 0 72 72" xmlns="http://www.w3.org/2000/svg"><path fill="#b3b3b3" d="M68 4v64H4V4h64m4-4H0v72h72V0z"/><path fill="none" stroke="#00a5ff" stroke-miterlimit="10" stroke-width=".1" d="M12.923 10.958h46.154A1.923 1.923 0 0161 12.881v46.154a1.923 1.923 0 01-1.923 1.923H12.923A1.923 1.923 0 0111 59.035V12.881a1.923 1.923 0 011.923-1.923z"/><rect x="16" y="4" rx="2.254" width="40" height="64" fill="none" stroke="#00a5ff" stroke-miterlimit="10" stroke-width=".1"/><rect x="16" y="4" rx="2.254" width="40" height="64" transform="rotate(90 36 36)" fill="none" stroke="#00a5ff" stroke-miterlimit="10" stroke-width=".1"/><circle cx="36" cy="36" r="29" fill="none" stroke="#00a5ff" stroke-miterlimit="10" stroke-width=".1"/><g stroke-linecap="round" stroke-miterlimit="10" stroke-width="6" stroke="#fff" fill="none" stroke-linejoin="round"><path d="M17.368 26.219h16.53a.43.43 0 01.43.43v22.296m-.001-2.662H17.368m20.107-20.064h16.53a.43.43 0 01.43.43v22.296m-.001-2.662H37.475"/><rect x="11.805" y="11.602" rx="1.699" width="48.984" height="48.984"/></g><rect x="11.805" y="11.602" rx="1.699" width="48.984" height="48.984" fill="#d0cfce"/><g fill="none" stroke="#000" stroke-width="2"><path stroke-linecap="round" stroke-miterlimit="5" d="M17.368 26.219h16.53a.43.43 0 01.43.43v22.296m-.001-2.662H17.368m20.107-20.064h16.53a.43.43 0 01.43.43v22.296m-.001-2.662H37.475"/><rect x="11.805" y="11.602" rx="1.699" width="48.984" height="48.984" stroke-miterlimit="10"/></g></svg>
